images/icons/purchase/pending.svg

<?xml version="1.0" encoding="UTF-8"?>
<svg width="84px" height="57px" viewBox="0 0 84 57" version="1.1" xmlns="http://www.w3.org/2000/svg" xmlns:xlink="http://www.w3.org/1999/xlink">
    <!-- Generator: Sketch 64 (93537) - https://sketch.com -->
    <title>Group 79 Copy</title>
    <desc>Created with Sketch.</desc>
    <defs>
        <path d="M0.778122533,1.34843832 C0.778122533,1.55562336 0.947435033,1.71825247 1.15462007,1.71825247 L1.15462007,1.71825247 C1.3595773,1.71825247 1.52666201,1.55562336 1.52666201,1.34843832 L1.52666201,1.34843832 C1.52666201,1.1367977 1.3595773,0.971940789 1.15462007,0.971940789 L1.15462007,0.971940789 C0.947435033,0.971940789 0.778122533,1.1367977 0.778122533,1.34843832 L0.778122533,1.34843832 Z" id="path-1"></path>
        <path d="M0.908612664,1.65937993 C0.908612664,1.86879276 1.07792516,2.03364967 1.2851102,2.03364967 L1.2851102,2.03364967 C1.49006743,2.03364967 1.65937993,1.86879276 1.65937993,1.65937993 L1.65937993,1.65937993 C1.65937993,1.44996711 1.49006743,1.2851102 1.2851102,1.2851102 L1.2851102,1.2851102 C1.07792516,1.2851102 0.908612664,1.44996711 0.908612664,1.65937993 L0.908612664,1.65937993 Z" id="path-3"></path>
    </defs>
    <g id="Hotels-1st-Draft-🖥" stroke="none" stroke-width="1" fill="none" fill-rule="evenodd">
        <g id="Pendiente-Desktop" transform="translate(-221.000000, -98.000000)">
            <g id="Group-79-Copy" transform="translate(221.000000, 99.000000)">
                <g id="Group-38" transform="translate(0.000000, 0.038986)">
                    <g id="Group-4" transform="translate(20.050164, 16.250822)">
                        <path d="M6.61811373,13.0538297 L0.117404852,9.39133298 C0.0305208059,9.34232146 0.00601504934,9.24875403 0.0639377467,9.17523676 L6.99461127,0.337569819" id="Fill-1" fill="#D8D0C0"></path>
                        <path d="M7.27436373,13.0538297 L0.773654852,9.39133298 C0.686770806,9.34232146 0.662265049,9.24875403 0.720187747,9.17523676 L7.65086127,0.337569819" id="Stroke-3" stroke="#3B3D44" stroke-width="1.3125" stroke-linecap="round"></path>
                    </g>
                    <g id="Group-8" transform="translate(55.038651, 17.563322)">
                        <path d="M1.06638725,12.7400507 L7.67848594,9.28251118 C7.76536998,9.23572747 7.79210354,9.13993224 7.73640863,9.06641497 L1.08420962,0.0193351974" id="Fill-5" fill="#D8D0C0"></path>
                        <path d="M0.410137253,12.7400507 L7.02223594,9.28251118 C7.10911998,9.23572747 7.13585354,9.13993224 7.08015863,9.06641497 L0.427959622,0.0193351974" id="Stroke-7" stroke="#3B3D44" stroke-width="1.3125" stroke-linecap="round"></path>
                    </g>
                    <path d="M19.5749756,50.7950867 L0.70554301,50.7950867 C0.28226176,50.7950867 -0.051907648,50.4297281 0.00601504934,50.0086747 C0.259983799,48.1885653 1.46744926,43.844363 7.24189663,43.931247 C7.61616637,43.9379304 7.94588018,43.6795061 7.97261373,43.3030086 C8.07509235,41.8527133 8.88601012,38.524386 13.9676129,38.524386 C20.2789591,38.524386 19.5749756,44.6597363 19.5749756,44.6597363" id="Fill-9" fill="#F0E4F6" opacity="0.78"></path>
                    <path d="M64.2875107,41.620577 L83.1569433,41.620577 C83.5802245,41.620577 83.9143939,41.2552184 83.8542434,40.834165 C83.6025025,39.0140556 82.395037,34.6698533 76.6205896,34.7567373 C76.2440921,34.7634207 75.9166061,34.5049964 75.8898725,34.1284988 C75.7873939,32.6782036 74.9787039,29.3498763 69.8948734,29.3498763 C63.5835271,29.3498763 64.2875107,35.4852266 64.2875107,35.4852266" id="Fill-12" fill="#F0E4F6" opacity="0.78"></path>
                    <path d="M55.5654664,31.1082757 L55.5654664,2.1246491 C55.5654664,1.23798627 55.1488685,0.518408141 54.6387032,0.518408141 L47.6679294,0.518408141 C47.4406942,0.518408141 47.2491037,0.685492845 47.1354861,1.02857344 C46.6074984,2.65932015 44.5668373,4.99182262 41.4055947,4.99182262 C38.2844524,4.99182262 36.5601382,2.64149778 36.0254672,1.01966225 C35.9118496,0.681037253 35.7202591,0.518408141 35.4952517,0.518408141 L28.5222501,0.518408141 C28.009857,0.518408141 27.5954869,1.23798627 27.5954869,2.1246491 L27.2454547,29.9275438 C27.234584,30.7585118 27.5709812,31.5337848 28.1279302,31.957066 L40.6726498,41.5031721 C41.2563323,41.9465035 41.9848216,41.930909 42.5551374,41.4586162 L55.5654664,31.1082757 Z" id="Fill-14" fill="#FFFFFF"></path>
                    <polyline id="Stroke-16" stroke="#3B3D44" stroke-width="1.11389803" stroke-linecap="round" points="52.9504794 33.18926 55.5659119 31.1084985 55.5659119 27.7668044"></polyline>
                    <path d="M55.5654664,25.4855413 L55.5654664,2.12487188 C55.5654664,1.23820905 55.1488685,0.518630921 54.6387032,0.518630921 L47.6679294,0.518630921 C47.4406942,0.518630921 47.2491037,0.685715625 47.1354861,1.02879622 C46.6074984,2.65954293 44.5668373,4.99204539 41.4055947,4.99204539 C38.2844524,4.99204539 36.5601382,2.64172056 36.0254672,1.01988503 C35.9118496,0.681260033 35.7202591,0.518630921 35.4952517,0.518630921 L28.5222501,0.518630921 C28.009857,0.518630921 27.5954869,1.23820905 27.5954869,2.12487188 L27.2454547,29.9277666 C27.234584,30.7587345 27.5709812,31.5340076 28.1279302,31.9572888 L40.6726498,41.5033949 C41.2563323,41.9467263 41.9848216,41.9311317 42.5551374,41.458839 L52.9500338,33.18926" id="Stroke-18" stroke="#3B3D44" stroke-width="1.3125" stroke-linecap="round" stroke-dasharray="6.843789607286453,2.281263202428818,0,0,0,0"></path>
                    <path d="M64.5093992,55.1375067 L18.9130974,55.1375067 C17.9907898,55.1375067 17.2444781,54.3911951 17.2444781,53.4688875 L17.2444781,26.5326054 C17.2444781,25.4966803 18.3851097,24.8706696 19.2584058,25.423163 L40.0882988,38.6139434 C41.0774403,39.2421819 42.3428285,39.2421819 43.3341977,38.6139434 L64.161863,25.423163 C65.035159,24.8706696 66.1780184,25.4966803 66.1780184,26.5326054 L66.1780184,53.4688875 C66.1780184,54.3911951 65.4294789,55.1375067 64.5093992,55.1375067" id="Fill-20" fill="#F5F0E3"></path>
                    <path d="M64.5093992,55.1375067 L18.9130974,55.1375067 C17.9907898,55.1375067 17.2444781,54.3911951 17.2444781,53.4688875 L17.2444781,26.5326054 C17.2444781,25.4966803 18.3851097,24.8706696 19.2584058,25.423163 L40.0882988,38.6139434 C41.0774403,39.2421819 42.3428285,39.2421819 43.3341977,38.6139434 L64.161863,25.423163 C65.035159,24.8706696 66.1780184,25.4966803 66.1780184,26.5326054 L66.1780184,53.4688875 C66.1780184,54.3911951 65.4294789,55.1375067 64.5093992,55.1375067 Z" id="Stroke-22" stroke="#3B3D44" stroke-width="1.3125"></path>
                    <line x1="43.9434999" y1="38.2278664" x2="17.6711011" y2="54.5754338" id="Stroke-24" stroke="#3B3D44" stroke-width="1.3125"></line>
                    <path d="M56.1050386,31.2452852 L64.3991233,25.927536 C64.3991233,25.927536 65.4684654,25.2168691 65.6043609,26.2171495 C65.8650131,28.1508765 65.6043609,34.0099801 65.6043609,34.0099801 L65.6043609,53.5923074 C65.6043609,53.5923074 65.4885155,54.6906109 64.2632277,54.5925878 L56.1050386,54.5992712 L56.1050386,31.2452852 Z" id="Fill-26" fill="#D8D0C0"></path>
                    <path d="M28.1455298,2.7646949 C28.1499854,2.36146382 28.1522132,2.23225164 28.1566688,1.99387747 C28.1678077,1.40796711 28.3460314,1.09384786 28.5242551,1.07825329 C28.6556951,1.06488651 35.3279442,1.07602549 35.3279442,1.07602549 C35.3925503,1.07602549 35.450473,1.12058141 35.472751,1.1829597 C36.379464,3.724875 38.2597238,4.72069984 38.7698891,4.95016283 C38.8523176,4.98803536 38.9325183,5.00808553 39.0194023,5.03481908 C45.1369303,6.97077385 47.1709081,2.08521711 47.6387452,1.16959293 C47.6944401,1.06043092 47.783552,1.00250822 47.9083086,1.00467408 C48.8818554,1.0136472 53.2750692,1.06043092 53.2750692,1.06043092 C54.4402066,1.00028043 54.6095191,1.06711431 54.6095191,1.06711431 C54.6095191,1.06711431 54.7387313,1.14731497 54.8568044,1.36563898 C54.9436885,1.5238125 54.9860166,2.00056086 54.9860166,2.00056086 L55.0016112,10.0763215 L54.8389821,10.0763215 L28.2145914,10.0763215 C28.1232518,10.0763215 28.0519623,10.0028043 28.0519623,9.91146464 L28.1455298,2.7646949 Z" id="Fill-28" fill="#FFA952"></path>
                    <path d="M48.5601617,22.1959776 C48.5601617,26.14586 45.356591,29.3494308 41.4067086,29.3494308 C37.4545984,29.3494308 34.2487998,26.14586 34.2487998,22.1959776 C34.2487998,18.2460952 37.4545984,15.0425245 41.4067086,15.0425245 C45.356591,15.0425245 48.5601617,18.2460952 48.5601617,22.1959776 Z" id="Stroke-30" stroke="#FFA952" stroke-width="1.11389803"></path>
                    <line x1="40.9945663" y1="23.020485" x2="45.0959388" y2="23.020485" id="Stroke-32" stroke="#FFA952" stroke-width="1.11389803" stroke-linecap="round" stroke-linejoin="round"></line>
                    <line x1="40.9945663" y1="19.5451231" x2="40.9945663" y2="23.0227127" id="Stroke-34" stroke="#FFA952" stroke-width="1.11389803" stroke-linecap="round" stroke-linejoin="round"></line>
                    <path d="M41.3677221,16.6830735 C41.3677221,16.8902586 41.2006374,17.0551155 40.9956802,17.0551155 C40.7884951,17.0551155 40.6214104,16.8902586 40.6214104,16.6830735 C40.6214104,16.4714329 40.7884951,16.3088038 40.9956802,16.3088038 C41.2006374,16.3088038 41.3677221,16.4714329 41.3677221,16.6830735" id="Fill-36" fill="#FFA952"></path>
                </g>
                <g id="Group-42" transform="translate(39.841283, 15.374513)">
                    <mask id="mask-2" fill="white">
                        <use xlink:href="#path-1"></use>
                    </mask>
                    <g id="Clip-40"></g>
                    <polygon id="Fill-39" fill="#FFA952" mask="url(#mask-2)" points="-5.39287253 7.88924753 7.69765707 7.88924753 7.69765707 -5.19905428 -5.39287253 -5.19905428"></polygon>
                    <polygon id="Stroke-41" stroke="#FFA952" stroke-width="0.556949013" mask="url(#mask-2)" points="-5.39287253 7.88924753 7.69765707 7.88924753 7.69765707 -5.19905428 -5.39287253 -5.19905428"></polygon>
                </g>
                <g id="Group-47" transform="translate(34.729441, 15.374513)">
                    <path d="M6.63828133,1.3475472 C6.63828133,1.55473224 6.47119663,1.71958914 6.26623939,1.71958914 C6.05905436,1.71958914 5.89196965,1.55473224 5.89196965,1.3475472 C5.89196965,1.13590658 6.05905436,0.973277467 6.26623939,0.973277467 C6.47119663,0.973277467 6.63828133,1.13590658 6.63828133,1.3475472" id="Stroke-43" stroke="#FFA952" stroke-width="0.556949013"></path>
                    <path d="M1.66049383,7.68495863 C1.66049383,7.89659926 1.49118133,8.05922837 1.2862241,8.05922837 C1.07681127,8.05922837 0.909726562,7.89659926 0.909726562,7.68495863 C0.909726562,7.4777736 1.07681127,7.31291669 1.2862241,7.31291669 C1.49118133,7.31291669 1.66049383,7.4777736 1.66049383,7.68495863" id="Fill-45" fill="#FFA952"></path>
                </g>
                <g id="Group-51" transform="translate(34.729441, 21.401651)">
                    <mask id="mask-4" fill="white">
                        <use xlink:href="#path-3"></use>
                    </mask>
                    <g id="Clip-49"></g>
                    <polygon id="Fill-48" fill="#FFA952" mask="url(#mask-4)" points="-5.26015461 8.20241694 7.8326028 8.20241694 7.8326028 -4.88588487 -5.26015461 -4.88588487"></polygon>
                    <polygon id="Stroke-50" stroke="#FFA952" stroke-width="0.556949013" mask="url(#mask-4)" points="-5.26015461 8.20241694 7.8326028 8.20241694 7.8326028 -4.88588487 -5.26015461 -4.88588487"></polygon>
                </g>
                <g id="Group-78" transform="translate(3.799342, 6.584217)">
                    <path d="M32.5905925,16.4752547 C32.5905925,16.6868953 32.42128,16.8495244 32.2163228,16.8495244 C32.00691,16.8495244 31.8398252,16.6868953 31.8398252,16.4752547 C31.8398252,16.2680697 32.00691,16.1032127 32.2163228,16.1032127 C32.42128,16.1032127 32.5905925,16.2680697 32.5905925,16.4752547" id="Stroke-52" stroke="#FFA952" stroke-width="0.556949013"></path>
                    <g id="Group-57" transform="translate(36.041941, 19.273026)">
                        <path d="M1.52643923,1.69480189 C1.52643923,1.90644252 1.35935452,2.07129942 1.15439729,2.07129942 C0.947212253,2.07129942 0.780127549,1.90644252 0.780127549,1.69480189 C0.780127549,1.48761686 0.947212253,1.32275995 1.15439729,1.32275995 C1.35935452,1.32275995 1.52643923,1.48761686 1.52643923,1.69480189" id="Fill-54" fill="#FFA952"></path>
                        <path d="M1.52643923,1.69480189 C1.52643923,1.90644252 1.35935452,2.07129942 1.15439729,2.07129942 C0.947212253,2.07129942 0.780127549,1.90644252 0.780127549,1.69480189 C0.780127549,1.48761686 0.947212253,1.32275995 1.15439729,1.32275995 C1.35935452,1.32275995 1.52643923,1.48761686 1.52643923,1.69480189" id="Stroke-56" stroke="#FFA952" stroke-width="0.556949013"></path>
                    </g>
                    <g id="Group-61" transform="translate(41.412829, 14.817434)">
                        <path d="M1.95784589,1.65782048 C1.95784589,1.8694611 1.79076118,2.03209021 1.58580395,2.03209021 C1.37861891,2.03209021 1.20707862,1.8694611 1.20707862,1.65782048 C1.20707862,1.45063544 1.37861891,1.28577854 1.58580395,1.28577854 C1.79076118,1.28577854 1.95784589,1.45063544 1.95784589,1.65782048" id="Fill-58" fill="#FFA952"></path>
                        <path d="M1.95784589,1.65782048 C1.95784589,1.8694611 1.79076118,2.03209021 1.58580395,2.03209021 C1.37861891,2.03209021 1.20707862,1.8694611 1.20707862,1.65782048 C1.20707862,1.45063544 1.37861891,1.28577854 1.58580395,1.28577854 C1.79076118,1.28577854 1.95784589,1.45063544 1.95784589,1.65782048" id="Stroke-60" stroke="#FFA952" stroke-width="0.556949013"></path>
                    </g>
                    <g id="Group" transform="translate(8.013158, 7.197033)" stroke="#F0E4F6" stroke-linecap="round" stroke-width="1.78223684">
                        <line x1="2.2552425" y1="1.08646425e-13" x2="2.2552425" y2="4.50549474" id="Stroke-62"></line>
                        <line x1="4.50905921" y1="2.25381671" x2="-4.33653113e-13" y2="2.25381671" id="Stroke-64"></line>
                    </g>
                    <g id="Group-5" transform="translate(71.669408, 13.759533)" stroke="#F0E4F6" stroke-linecap="round" stroke-width="1.78223684">
                        <line x1="2.16969513" y1="1.08646425e-13" x2="2.34078987" y2="4.50549474" id="Stroke-66"></line>
                        <line x1="4.50549474" y1="2.16684355" x2="-8.46323012e-13" y2="2.33793829" id="Stroke-68"></line>
                    </g>
                    <g id="Group-3" transform="translate(60.513158, 0.634533)" stroke="#F0E4F6" stroke-linecap="round" stroke-width="1.78223684">
                        <line x1="1.91804329" y1="-7.60058683e-14" x2="2.54182618" y2="4.46272105" id="Stroke-70"></line>
                        <line x1="4.46272105" y1="1.91946908" x2="-1.03097531e-12" y2="2.54325197" id="Stroke-72"></line>
                    </g>
                    <g id="Group-2" transform="translate(0.138158, 21.634533)" stroke="#F0E4F6" stroke-linecap="round" stroke-width="1.78223684">
                        <line x1="2.25167803" y1="4.19664303e-14" x2="2.25167803" y2="4.50905921" id="Stroke-74"></line>
                        <line x1="4.50549474" y1="2.25381671" x2="-8.47255599e-13" y2="2.25381671" id="Stroke-76"></line>
                    </g>
                </g>
            </g>
        </g>
    </g>
</svg>

<?xml version="1.0" encoding="UTF-8"?>
<svg version="1.1" viewBox="0 0 84 57" xmlns="http://www.w3.org/2000/svg" xmlns:xlink="http://www.w3.org/1999/xlink">
<title>Group 79 Copy</title>
<desc>Created with Sketch.</desc>
<defs>
<path id="d" d="m0.77812 1.3484c0 0.20719 0.16931 0.36981 0.3765 0.36981 0.20496 0 0.37204-0.16263 0.37204-0.36981 0-0.21164-0.16708-0.3765-0.37204-0.3765-0.20719 0-0.3765 0.16486-0.3765 0.3765z"/>
<path id="c" d="m0.90861 1.6594c0 0.20941 0.16931 0.37427 0.3765 0.37427 0.20496 0 0.37427-0.16486 0.37427-0.37427 0-0.20941-0.16931-0.37427-0.37427-0.37427-0.20719 0-0.3765 0.16486-0.3765 0.37427z"/>
</defs>
<g fill="none" fill-rule="evenodd">
<g transform="translate(-221 -98)">
<g transform="translate(221 99)">
<g transform="translate(0 .038986)">
<g transform="translate(20.05 16.251)">
<path d="m6.6181 13.054l-6.5007-3.6625c-0.086884-0.049012-0.11139-0.14258-0.053467-0.2161l6.9307-8.8377" fill="#D8D0C0"/>
<path d="m7.2744 13.054l-6.5007-3.6625c-0.086884-0.049012-0.11139-0.14258-0.053467-0.2161l6.9307-8.8377" stroke="#3B3D44" stroke-linecap="round" stroke-width="1.3125"/>
</g>
<g transform="translate(55.039 17.563)">
<path d="m1.0664 12.74l6.6121-3.4575c0.086884-0.046784 0.11362-0.14258 0.057923-0.2161l-6.6522-9.0471" fill="#D8D0C0"/>
<path d="m0.41014 12.74l6.6121-3.4575c0.086884-0.046784 0.11362-0.14258 0.057923-0.2161l-6.6522-9.0471" stroke="#3B3D44" stroke-linecap="round" stroke-width="1.3125"/>
</g>
<path d="m19.575 50.795h-18.869c-0.42328 0-0.75745-0.36536-0.69953-0.78641 0.25397-1.8201 1.4614-6.1643 7.2359-6.0774 0.37427 0.0066834 0.70398-0.25174 0.73072-0.62824 0.10248-1.4503 0.9134-4.7786 5.995-4.7786 6.3113 0 5.6074 6.1354 5.6074 6.1354" fill="#F0E4F6" opacity=".78"/>
<path d="m64.288 41.621h18.869c0.42328 0 0.75745-0.36536 0.6973-0.78641-0.25174-1.8201-1.4592-6.1643-7.2337-6.0774-0.3765 0.0066834-0.70398-0.25174-0.73072-0.62824-0.10248-1.4503-0.91117-4.7786-5.995-4.7786-6.3113 0-5.6074 6.1354-5.6074 6.1354" fill="#F0E4F6" opacity=".78"/>
<path d="m55.565 31.108v-28.984c0-0.88666-0.4166-1.6062-0.92676-1.6062h-6.9708c-0.22724 0-0.41883 0.16708-0.53244 0.51017-0.52799 1.6307-2.5686 3.9632-5.7299 3.9632-3.1211 0-4.8455-2.3503-5.3801-3.9722-0.11362-0.33862-0.30521-0.50125-0.53022-0.50125h-6.973c-0.51239 0-0.92676 0.71958-0.92676 1.6062l-0.35003 27.803c-0.010871 0.83097 0.32553 1.6062 0.88248 2.0295l12.545 9.5461c0.58368 0.44333 1.3122 0.42774 1.8825-0.044556l13.01-10.35z" fill="#fff"/>
<polyline points="52.95 33.189 55.566 31.108 55.566 27.767" stroke="#3B3D44" stroke-linecap="round" stroke-width="1.1139"/>
<path d="m55.565 25.486v-23.361c0-0.88666-0.4166-1.6062-0.92676-1.6062h-6.9708c-0.22724 0-0.41883 0.16708-0.53244 0.51017-0.52799 1.6307-2.5686 3.9632-5.7299 3.9632-3.1211 0-4.8455-2.3503-5.3801-3.9722-0.11362-0.33862-0.30521-0.50125-0.53022-0.50125h-6.973c-0.51239 0-0.92676 0.71958-0.92676 1.6062l-0.35003 27.803c-0.010871 0.83097 0.32553 1.6062 0.88248 2.0295l12.545 9.5461c0.58368 0.44333 1.3122 0.42774 1.8825-0.044556l10.395-8.2696" stroke="#3B3D44" stroke-dasharray="6.843789607286453,2.281263202428818,0,0,0,0" stroke-linecap="round" stroke-width="1.3125"/>
<path d="m64.509 55.138h-45.596c-0.92231 0-1.6686-0.74631-1.6686-1.6686v-26.936c0-1.0359 1.1406-1.6619 2.0139-1.1094l20.83 13.191c0.98914 0.62824 2.2545 0.62824 3.2459 0l20.828-13.191c0.8733-0.55249 2.0162 0.073517 2.0162 1.1094v26.936c0 0.92231-0.74854 1.6686-1.6686 1.6686" fill="#F5F0E3"/>
<path d="m64.509 55.138h-45.596c-0.92231 0-1.6686-0.74631-1.6686-1.6686v-26.936c0-1.0359 1.1406-1.6619 2.0139-1.1094l20.83 13.191c0.98914 0.62824 2.2545 0.62824 3.2459 0l20.828-13.191c0.8733-0.55249 2.0162 0.073517 2.0162 1.1094v26.936c0 0.92231-0.74854 1.6686-1.6686 1.6686z" stroke="#3B3D44" stroke-width="1.3125"/>
<line x1="43.943" x2="17.671" y1="38.228" y2="54.575" stroke="#3B3D44" stroke-width="1.3125"/>
<path d="m56.105 31.245l8.2941-5.3177s1.0693-0.71067 1.2052 0.28961c0.26065 1.9337 0 7.7928 0 7.7928v19.582s-0.11585 1.0983-1.3411 1.0003l-8.1582 0.0066834v-23.354z" fill="#D8D0C0"/>
<path d="m28.146 2.7647c0.0044556-0.40323 0.0066834-0.53244 0.011139-0.77082 0.011139-0.58591 0.18936-0.90003 0.36759-0.91562 0.13144-0.013367 6.8037-0.0022278 6.8037-0.0022278 0.064606 0 0.12253 0.044556 0.14481 0.10693 0.90671 2.5419 2.787 3.5377 3.2971 3.7672 0.082428 0.037873 0.16263 0.057923 0.24951 0.084656 6.1175 1.936 8.1515-2.9496 8.6193-3.8652 0.055695-0.10916 0.14481-0.16708 0.26956-0.16492 0.97355 0.0089731 5.3668 0.055757 5.3668 0.055757 1.1651-0.06015 1.3344 0.0066834 1.3344 0.0066834s0.12921 0.080201 0.24729 0.29852c0.086884 0.15817 0.12921 0.63492 0.12921 0.63492l0.015595 8.0758h-0.16263-26.624c-0.09134 0-0.16263-0.073517-0.16263-0.16486l0.093568-7.1468z" fill="#FFA952"/>
<path d="m48.56 22.196c0 3.9499-3.2036 7.1535-7.1535 7.1535-3.9521 0-7.1579-3.2036-7.1579-7.1535s3.2058-7.1535 7.1579-7.1535c3.9499 0 7.1535 3.2036 7.1535 7.1535z" stroke="#FFA952" stroke-width="1.1139"/>
<line x1="40.995" x2="45.096" y1="23.02" y2="23.02" stroke="#FFA952" stroke-linecap="round" stroke-linejoin="round" stroke-width="1.1139"/>
<line x1="40.995" x2="40.995" y1="19.545" y2="23.023" stroke="#FFA952" stroke-linecap="round" stroke-linejoin="round" stroke-width="1.1139"/>
<path d="m41.368 16.683c0 0.20719-0.16708 0.37204-0.37204 0.37204-0.20719 0-0.37427-0.16486-0.37427-0.37204 0-0.21164 0.16708-0.37427 0.37427-0.37427 0.20496 0 0.37204 0.16263 0.37204 0.37427" fill="#FFA952"/>
</g>
<g transform="translate(39.841 15.375)">
<mask id="b" fill="white">
<use xlink:href="#d"/>
</mask>
<polygon points="-5.3929 7.8892 7.6977 7.8892 7.6977 -5.1991 -5.3929 -5.1991" fill="#FFA952" mask="url(#b)"/>
<polygon points="-5.3929 7.8892 7.6977 7.8892 7.6977 -5.1991 -5.3929 -5.1991" mask="url(#b)" stroke="#FFA952" stroke-width=".55695"/>
</g>
<g transform="translate(34.729 15.375)">
<path d="m6.6383 1.3475c0 0.20719-0.16708 0.37204-0.37204 0.37204-0.20719 0-0.37427-0.16486-0.37427-0.37204 0-0.21164 0.16708-0.37427 0.37427-0.37427 0.20496 0 0.37204 0.16263 0.37204 0.37427" stroke="#FFA952" stroke-width=".55695"/>
<path d="m1.6605 7.685c0 0.21164-0.16931 0.37427-0.37427 0.37427-0.20941 0-0.3765-0.16263-0.3765-0.37427 0-0.20719 0.16708-0.37204 0.3765-0.37204 0.20496 0 0.37427 0.16486 0.37427 0.37204" fill="#FFA952"/>
</g>
<g transform="translate(34.729 21.402)">
<mask id="a" fill="white">
<use xlink:href="#c"/>
</mask>
<polygon points="-5.2602 8.2024 7.8326 8.2024 7.8326 -4.8859 -5.2602 -4.8859" fill="#FFA952" mask="url(#a)"/>
<polygon points="-5.2602 8.2024 7.8326 8.2024 7.8326 -4.8859 -5.2602 -4.8859" mask="url(#a)" stroke="#FFA952" stroke-width=".55695"/>
</g>
<g transform="translate(3.7993 6.5842)">
<path d="m32.591 16.475c0 0.21164-0.16931 0.37427-0.37427 0.37427-0.20941 0-0.3765-0.16263-0.3765-0.37427 0-0.20718 0.16708-0.37204 0.3765-0.37204 0.20496 0 0.37427 0.16486 0.37427 0.37204" stroke="#FFA952" stroke-width=".55695"/>
<g transform="translate(36.042 19.273)">
<path d="m1.5264 1.6948c0 0.21164-0.16708 0.3765-0.37204 0.3765-0.20719 0-0.37427-0.16486-0.37427-0.3765 0-0.20719 0.16708-0.37204 0.37427-0.37204 0.20496 0 0.37204 0.16486 0.37204 0.37204" fill="#FFA952"/>
<path d="m1.5264 1.6948c0 0.21164-0.16708 0.3765-0.37204 0.3765-0.20719 0-0.37427-0.16486-0.37427-0.3765 0-0.20719 0.16708-0.37204 0.37427-0.37204 0.20496 0 0.37204 0.16486 0.37204 0.37204" stroke="#FFA952" stroke-width=".55695"/>
</g>
<g transform="translate(41.413 14.817)">
<path d="m1.9578 1.6578c0 0.21164-0.16708 0.37427-0.37204 0.37427-0.20719 0-0.37873-0.16263-0.37873-0.37427 0-0.20719 0.17154-0.37204 0.37873-0.37204 0.20496 0 0.37204 0.16486 0.37204 0.37204" fill="#FFA952"/>
<path d="m1.9578 1.6578c0 0.21164-0.16708 0.37427-0.37204 0.37427-0.20719 0-0.37873-0.16263-0.37873-0.37427 0-0.20719 0.17154-0.37204 0.37873-0.37204 0.20496 0 0.37204 0.16486 0.37204 0.37204" stroke="#FFA952" stroke-width=".55695"/>
</g>
<g transform="translate(8.0132 7.197)" stroke="#F0E4F6" stroke-linecap="round" stroke-width="1.7822">
<line x1="2.2552" x2="2.2552" y1="1.0865e-13" y2="4.5055"/>
<line x1="4.5091" x2="-4.3365e-13" y1="2.2538" y2="2.2538"/>
</g>
<g transform="translate(71.669 13.76)" stroke="#F0E4F6" stroke-linecap="round" stroke-width="1.7822">
<line x1="2.1697" x2="2.3408" y1="1.0865e-13" y2="4.5055"/>
<line x1="4.5055" x2="-8.4632e-13" y1="2.1668" y2="2.3379"/>
</g>
<g transform="translate(60.513 .63453)" stroke="#F0E4F6" stroke-linecap="round" stroke-width="1.7822">
<line x1="1.918" x2="2.5418" y1="-7.6006e-14" y2="4.4627"/>
<line x1="4.4627" x2="-1.031e-12" y1="1.9195" y2="2.5433"/>
</g>
<g transform="translate(.13816 21.635)" stroke="#F0E4F6" stroke-linecap="round" stroke-width="1.7822">
<line x1="2.2517" x2="2.2517" y1="4.1966e-14" y2="4.5091"/>
<line x1="4.5055" x2="-8.4726e-13" y1="2.2538" y2="2.2538"/>
</g>
</g>
</g>
</g>
</g>
</svg>
